Icons/com_sec_android_quickmemo_ui_MemoList.svg

<svg viewBox="0 0 48 48" xmlns:xlink="http://www.w3.org/1999/xlink">
 <defs>
  <linearGradient id="0">
   <stop stop-opacity="0"/>
   <stop offset="1"/>
  </linearGradient>
  <linearGradient xlink:href="#0" id="1" gradientUnits="userSpaceOnUse" gradientTransform="translate(4e-7,-48)" y1="47" x2="0" y2="1"/>
  <clipPath id="2">
   <g transform="translate(0,-1004.3622)">
    <rect rx="4" y="1005.36" x="1" height="46" width="46" fill="#1890d0"/>
   </g>
  </clipPath>
  <clipPath id="3">
   <g transform="translate(0,-1004.3622)">
    <rect rx="4" y="1005.36" x="1" height="46" width="46" fill="#1890d0"/>
   </g>
  </clipPath>
 </defs>
 <g>
  <g transform="translate(0,-1004.3622)">
   <path d="m 5,1006.3622 c -2.216,0 -4,1.784 -4,4 l 0,37.25 c 0,2.216 1.784,4 4,4 l 38,0 c 2.216,0 4,-1.784 4,-4 l 0,-37.25 c 0,-2.216 -1.784,-4 -4,-4 l -38,0 z m -4,41.5 0,0.5 c 0,2.216 1.784,4 4,4 l 38,0 c 2.216,0 4,-1.784 4,-4 l 0,-0.5 c 0,2.216 -1.784,4 -4,4 l -38,0 c -2.216,0 -4,-1.784 -4,-4 z" opacity="0.02"/>
   <path d="m 1,1047.6122 0,0.25 c 0,2.216 1.784,4 4,4 l 38,0 c 2.216,0 4,-1.784 4,-4 l 0,-0.25 c 0,2.216 -1.784,4 -4,4 l -38,0 c -2.216,0 -4,-1.784 -4,-4 z" opacity="0.05"/>
   <rect width="46" height="46" x="1" y="1005.61" rx="4" opacity="0.1"/>
  </g>
 </g>
 <g>
  <g transform="translate(0,-1004.3622)">
   <rect rx="4" y="1005.36" x="1" height="46" width="46" fill="#ffab15"/>
  </g>
 </g>
 <g>
  <rect transform="scale(1,-1)" width="46" height="46" x="1" y="-46.998" rx="4" opacity="0.1" fill="url(#1)"/>
 </g>
 <g>
  <g clip-path="url(#2)">
   <g opacity="0.1">
    <g>
     <path d="M 14 14 C 14 14 14 33 14 33.039062 L 20.625 33.039062 C 25.132812 33.035156 26 33 26 32 C 26 31 22.640625 31.003906 20 31 L 16 31 L 16 16 L 31 16 L 31 20.949219 C 31 24.117188 31.589844 26.480469 32 26.480469 C 32.417969 26.480469 33 23.660156 33 20 L 33 14 Z M 20.25 17.730469 C 17.753906 17.730469 16.523438 21.742188 18.75 22.621094 C 19.421875 22.886719 21.15625 22.359375 22.75 21.460938 C 25.964844 19.648438 26.902344 19.941406 25 22.105469 C 23.976562 23.269531 23.929688 23.519531 24.75 23.519531 C 27.222656 23.519531 28.5625 19.496094 26.375 18.632812 C 25.757812 18.386719 24.113281 18.929688 22.625 19.789062 C 19.144531 21.800781 18.703125 21.765625 20.125 19.53125 C 21.082031 18.03125 21.074219 17.730469 20.25 17.730469 Z M 24 25.0625 C 23.046875 25.144531 23.179688 25.675781 24 27.25 C 24.804688 28.800781 25.703125 28.625 26.75 26.609375 C 27.300781 25.546875 27.109375 25.199219 25.375 25.0625 C 24.800781 25.019531 24.316406 25.039062 24 25.0625 Z M 28.875 26.351562 L 27.5 28.023438 C 26.75 28.949219 26.125 29.878906 26.125 30.082031 C 26.125 30.28125 27.839844 31.78125 29.875 33.296875 L 33.5 36 L 34.75 34.328125 C 35.433594 33.414062 35.992188 32.484375 36 32.269531 C 36.007812 32.054688 34.472656 30.699219 32.5 29.179688 Z M 28.875 26.351562 "/>
    </g>
   </g>
  </g>
 </g>
 <g>
  <g clip-path="url(#3)">
   <g transform="translate(0,-1)">
    <g>
     <path d="M 14 14 C 14 14 14 33 14 33.039062 L 20.625 33.039062 C 25.132812 33.035156 26 33 26 32 C 26 31 22.640625 31.003906 20 31 L 16 31 L 16 16 L 31 16 L 31 20.949219 C 31 24.117188 31.589844 26.480469 32 26.480469 C 32.417969 26.480469 33 23.660156 33 20 L 33 14 Z M 20.25 17.730469 C 17.753906 17.730469 16.523438 21.742188 18.75 22.621094 C 19.421875 22.886719 21.15625 22.359375 22.75 21.460938 C 25.964844 19.648438 26.902344 19.941406 25 22.105469 C 23.976562 23.269531 23.929688 23.519531 24.75 23.519531 C 27.222656 23.519531 28.5625 19.496094 26.375 18.632812 C 25.757812 18.386719 24.113281 18.929688 22.625 19.789062 C 19.144531 21.800781 18.703125 21.765625 20.125 19.53125 C 21.082031 18.03125 21.074219 17.730469 20.25 17.730469 Z M 24 25.0625 C 23.046875 25.144531 23.179688 25.675781 24 27.25 C 24.804688 28.800781 25.703125 28.625 26.75 26.609375 C 27.300781 25.546875 27.109375 25.199219 25.375 25.0625 C 24.800781 25.019531 24.316406 25.039062 24 25.0625 Z M 28.875 26.351562 L 27.5 28.023438 C 26.75 28.949219 26.125 29.878906 26.125 30.082031 C 26.125 30.28125 27.839844 31.78125 29.875 33.296875 L 33.5 36 L 34.75 34.328125 C 35.433594 33.414062 35.992188 32.484375 36 32.269531 C 36.007812 32.054688 34.472656 30.699219 32.5 29.179688 Z M 28.875 26.351562 " fill="#ffffff"/>
    </g>
   </g>
  </g>
 </g>
 <g>
  <g transform="translate(0,-1004.3622)">
   <path d="m 1,1043.3622 0,4 c 0,2.216 1.784,4 4,4 l 38,0 c 2.216,0 4,-1.784 4,-4 l 0,-4 c 0,2.216 -1.784,4 -4,4 l -38,0 c -2.216,0 -4,-1.784 -4,-4 z" opacity="0.1"/>
  </g>
 </g>
</svg>

<svg viewBox="0 0 48 48"><defs><linearGradient id="linearGradient3764" x1="1" x2="47" gradientUnits="userSpaceOnUse" gradientTransform="translate(-48.000001,0.00221467)"><stop stop-color="#ffa201" stop-opacity="1"/><stop offset="1" stop-color="#ffab15" stop-opacity="1"/></linearGradient><clipPath id="clipPath-871791540"><g transform="translate(0,-1004.3622)"><rect rx="4" y="1005.36" x="1" height="46" width="46" fill="#1890d0"/></g></clipPath><clipPath id="clipPath-885098923"><g transform="translate(0,-1004.3622)"><rect rx="4" y="1005.36" x="1" height="46" width="46" fill="#1890d0"/></g></clipPath></defs><g><path d="m 1 43 l 0 0.25 c 0 2.216 1.784 4 4 4 l 38 0 c 2.216 0 4 -1.784 4 -4 l 0 -0.25 c 0 2.216 -1.784 4 -4 4 l -38 0 c -2.216 0 -4 -1.784 -4 -4 z m 0 0.5 l 0 0.5 c 0 2.216 1.784 4 4 4 l 38 0 c 2.216 0 4 -1.784 4 -4 l 0 -0.5 c 0 2.216 -1.784 4 -4 4 l -38 0 c -2.216 0 -4 -1.784 -4 -4 z" opacity="0.02"/><path d="m 1 43.25 l 0 0.25 c 0 2.216 1.784 4 4 4 l 38 0 c 2.216 0 4 -1.784 4 -4 l 0 -0.25 c 0 2.216 -1.784 4 -4 4 l -38 0 c -2.216 0 -4 -1.784 -4 -4 z" opacity="0.05"/><path d="m 1 43 l 0 0.25 c 0 2.216 1.784 4 4 4 l 38 0 c 2.216 0 4 -1.784 4 -4 l 0 -0.25 c 0 2.216 -1.784 4 -4 4 l -38 0 c -2.216 0 -4 -1.784 -4 -4 z" opacity="0.1"/></g><g><rect width="46" height="46" x="-47" y="1" rx="4" transform="matrix(0,-1,1,0,0,0)" fill="url(#linearGradient3764)" fill-opacity="1"/></g><g><g clip-path="url(#clipPath-871791540)"><g opacity="0.1"><!-- color: #ffab15 --><g><path d="m 14 14 c 0 0 0 19 0 19.04 l 6.625 0 c 4.508 -0.004 5.375 -0.039 5.375 -1.039 c 0 -1 -3.359 -0.996 -6 -1 l -4 0 l 0 -15 l 15 0 l 0 4.949 c 0 3.168 0.59 5.531 1 5.531 c 0.418 0 1 -2.82 1 -6.48 l 0 -6 m -12.75 3.73 c -2.496 0 -3.727 4.01 -1.5 4.891 c 0.672 0.266 2.406 -0.262 4 -1.16 c 3.215 -1.813 4.152 -1.52 2.25 0.645 c -1.023 1.164 -1.07 1.414 -0.25 1.414 c 2.473 0 3.813 -4.02 1.625 -4.887 c -0.617 -0.246 -2.262 0.297 -3.75 1.156 c -3.48 2.01 -3.922 1.977 -2.5 -0.258 c 0.957 -1.5 0.949 -1.801 0.125 -1.801 m 3.75 7.332 c -0.953 0.082 -0.82 0.613 0 2.188 c 0.805 1.551 1.703 1.375 2.75 -0.641 c 0.551 -1.063 0.359 -1.41 -1.375 -1.547 c -0.574 -0.043 -1.059 -0.023 -1.375 0 m 4.875 1.289 l -1.375 1.672 c -0.75 0.926 -1.375 1.855 -1.375 2.059 c 0 0.199 1.715 1.699 3.75 3.215 l 3.625 2.703 l 1.25 -1.672 c 0.684 -0.914 1.242 -1.844 1.25 -2.059 c 0.008 -0.215 -1.527 -1.57 -3.5 -3.09 m -3.625 -2.828" fill="#000"/></g></g></g></g><g><g clip-path="url(#clipPath-885098923)"><g transform="translate(0,-1)"><!-- color: #ffab15 --><g><path d="m 14 14 c 0 0 0 19 0 19.04 l 6.625 0 c 4.508 -0.004 5.375 -0.039 5.375 -1.039 c 0 -1 -3.359 -0.996 -6 -1 l -4 0 l 0 -15 l 15 0 l 0 4.949 c 0 3.168 0.59 5.531 1 5.531 c 0.418 0 1 -2.82 1 -6.48 l 0 -6 m -12.75 3.73 c -2.496 0 -3.727 4.01 -1.5 4.891 c 0.672 0.266 2.406 -0.262 4 -1.16 c 3.215 -1.813 4.152 -1.52 2.25 0.645 c -1.023 1.164 -1.07 1.414 -0.25 1.414 c 2.473 0 3.813 -4.02 1.625 -4.887 c -0.617 -0.246 -2.262 0.297 -3.75 1.156 c -3.48 2.01 -3.922 1.977 -2.5 -0.258 c 0.957 -1.5 0.949 -1.801 0.125 -1.801 m 3.75 7.332 c -0.953 0.082 -0.82 0.613 0 2.188 c 0.805 1.551 1.703 1.375 2.75 -0.641 c 0.551 -1.063 0.359 -1.41 -1.375 -1.547 c -0.574 -0.043 -1.059 -0.023 -1.375 0 m 4.875 1.289 l -1.375 1.672 c -0.75 0.926 -1.375 1.855 -1.375 2.059 c 0 0.199 1.715 1.699 3.75 3.215 l 3.625 2.703 l 1.25 -1.672 c 0.684 -0.914 1.242 -1.844 1.25 -2.059 c 0.008 -0.215 -1.527 -1.57 -3.5 -3.09 m -3.625 -2.828" fill="#fff"/></g></g></g></g><g><g transform="translate(0,-1004.3622)"><path d="m 1 1043.36 0 4 c 0 2.216 1.784 4 4 4 l 38 0 c 2.216 0 4 -1.784 4 -4 l 0 -4 c 0 2.216 -1.784 4 -4 4 l -38 0 c -2.216 0 -4 -1.784 -4 -4 z" opacity="0.1"/></g></g></svg>
